src/assets/svg/icons/fa/nuevos/classic/thin/transporter-7 classic thin.svg

<svg xmlns="http://www.w3.org/2000/svg" viewBox="0 0 512 512"><path d="M88 296h-32v-32C56 259.6 52.41 256 48 256S40 259.6 40 264v32h-32C3.594 296 0 299.6 0 304s3.594 8 8 8h32v32C40 348.4 43.59 352 48 352s8-3.578 8-8v-32h32C92.41 312 96 308.4 96 304S92.41 296 88 296zM504 72h-32v-32C472 35.58 468.4 32 464 32s-8 3.578-8 8v32h-32C419.6 72 416 75.58 416 80s3.594 8 8 8h32v32C456 124.4 459.6 128 464 128s8-3.578 8-8v-32h32C508.4 88 512 84.42 512 80S508.4 72 504 72zM376 448h-240C113.9 448 96 465.9 96 488v16C96 508.4 99.59 512 104 512s8-3.578 8-8v-16c0-13.23 10.78-24 24-24h240c13.22 0 24 10.77 24 24v16c0 4.422 3.594 8 8 8S416 508.4 416 504v-16C416 465.9 398.1 448 376 448z"/></svg>

<svg xmlns="http://www.w3.org/2000/svg" viewBox="0 0 512 512"><!--! Font Awesome Pro 6.4.0 by @fontawesome - https://fontawesome.com License - https://fontawesome.com/license (Commercial License) Copyright 2023 Fonticons, Inc. --><path d="M472 40c0-4.4-3.6-8-8-8s-8 3.6-8 8V72H424c-4.4 0-8 3.6-8 8s3.6 8 8 8h32v32c0 4.4 3.6 8 8 8s8-3.6 8-8V88h32c4.4 0 8-3.6 8-8s-3.6-8-8-8H472V40zM56 264c0-4.4-3.6-8-8-8s-8 3.6-8 8v32H8c-4.4 0-8 3.6-8 8s3.6 8 8 8H40v32c0 4.4 3.6 8 8 8s8-3.6 8-8V312H88c4.4 0 8-3.6 8-8s-3.6-8-8-8H56V264zm56 232c0-17.7 14.3-32 32-32H368c17.7 0 32 14.3 32 32v8c0 4.4 3.6 8 8 8s8-3.6 8-8v-8c0-26.5-21.5-48-48-48H144c-26.5 0-48 21.5-48 48v8c0 4.4 3.6 8 8 8s8-3.6 8-8v-8z"/></svg>
